resources/history.svg

<svg width="16" height="16" fill="currentColor">
  <path fill-opacity=".15" d="M8 0a8 8 0 1 0 8 8 8 8 0 0 0-8-8Zm0 13a5 5 0 1 1 5-5 5 5 0 0 1-5 5Z"/>
  <path d="M8 1a7 7 0 1 1-7 7 7 7 0 0 1 7-7m0-1a8 8 0 1 0 8 8 8 8 0 0 0-8-8Z"/>
  <path fill-opacity=".25" d="M8 3a5 5 0 1 1-5 5 5 5 0 0 1 5-5m0-1a6 6 0 1 0 6 6 6 6 0 0 0-6-6Z"/>
  <path d="M10.5 9H7V4.5a.5.5 0 0 1 1 0V8h2.5a.5.5 0 1 1 0 1Z"/>
</svg>

<svg xmlns="http://www.w3.org/2000/svg" width="16" height="16" fill="currentColor" viewBox="0 0 16 16"><path fill-opacity=".15" d="M8,0a8,8,0,1,0,8,8A8,8,0,0,0,8,0ZM8,13a5,5,0,1,1,5-5A5,5,0,0,1,8,13Z"/><path d="M8,1A7,7,0,1,1,1,8,7,7,0,0,1,8,1M8,0a8,8,0,1,0,8,8A8,8,0,0,0,8,0Z"/><path fill-opacity=".25" d="M8,3A5,5,0,1,1,3,8,5,5,0,0,1,8,3M8,2a6,6,0,1,0,6,6A6,6,0,0,0,8,2Z"/><path d="M10.5,9H7V4.5a.5.5,0,0,1,1,0V8h2.5a.5.5,0,1,1,0,1Z"/></svg>
